X:53
T:Dick the Haberdasher
M:6/8
L:1/8
B:Thompson's Compleat Collection of 200 Favourite Country Dances, vol. 1 (London, 1757)
Z:Transcribed and edited by Fynnian Titford-Mock, 2007
Z:abc's:AK/Fiddler's Companion
K:D
A|def edc|B3 d3|ABA GFE|FGF "tr"E2D|def edc|B3 d3|ece g2f|f3 e2:|
|:a|(af)a (af)a|a2A a2A|(ge)g (ge)g|g2G g2G|(af)a (af)a|bag fed|(e/f/g)f edc|d3 D2:|

